Sources/FrostedUI/Resources/Icons.xcassets/arrowFatDownFilled12.imageset/arrow-fat-down-filled-12.svg

<svg width="12" height="12" viewBox="0 0 12 12" fill="none" xmlns="http://www.w3.org/2000/svg" data-fui-icon="true">
  <path
    d="M2.19655 7.54908C1.84768 7.14393 2.13552 6.51623 2.67016 6.51623H3.99996V1.89124C3.99996 1.40799 4.39171 1.01624 4.87496 1.01624H7.12495C7.6082 1.01624 7.99995 1.40799 7.99995 1.89124V6.51623H9.32975C9.8644 6.51623 10.1523 7.14393 9.80335 7.54908L6.663 11.1959C6.3139 11.6013 5.686 11.6013 5.3369 11.1959L2.19655 7.54908Z"
    fill="currentColor"
  />
</svg>

<svg xmlns="http://www.w3.org/2000/svg" width="12" height="12" fill="none" data-fui-icon="true" viewBox="0 0 12 12"><path fill="currentColor" d="M2.197 7.55a.625.625 0 0 1 .473-1.034H4V1.891c0-.483.392-.875.875-.875h2.25c.483 0 .875.392.875.875v4.625h1.33c.534 0 .822.628.473 1.033l-3.14 3.647a.875.875 0 0 1-1.326 0z"/></svg>
